X:179
T:The Delight of the Men of Dovey
T:Difyrrwch Gwyr Dufi
N:For the dance "Bristol Bridge" by Lois Blake play (AAB) x 16.
M:6/8
L:1/8
S:Colin Hume's website,  colinhume.com  - chords can also be printed below the stave.
Q:3/8=100
K:Em
P:A
|: (E/F/) | "Em"GAB BcB | "Am"cAA A2(G/F/) | "G"GAB "Am"cAB | "Em"GEE E2 :|
P:B
(e/f/) | "Em"ggg "D"fff | "C"ege "G/B"d2d | "Am"ede gfe | "Bm"dBB B2(B/c/) |\
"G"ded dcB | "Am"cAA A2(G/F/) | "Em"GAB "D"cAB | "Em"GEEE2 |]

